small/extra/actions/standard/system-run.svg

<?xml version="1.0" encoding="UTF-8" standalone="no"?>
<svg
   xmlns:dc="http://purl.org/dc/elements/1.1/"
   xmlns:cc="http://creativecommons.org/ns#"
   xmlns:rdf="http://www.w3.org/1999/02/22-rdf-syntax-ns#"
   xmlns:svg="http://www.w3.org/2000/svg"
   xmlns="http://www.w3.org/2000/svg"
   height="100%"
   width="100%"
   version="1.1"
   id="svg2"
   viewBox="0 0 512 512">
  <metadata
     id="metadata100">
    <rdf:RDF>
      <cc:Work
         rdf:about="">
        <dc:format>image/svg+xml</dc:format>
        <dc:type
           rdf:resource="http://purl.org/dc/dcmitype/StillImage" />
        <dc:title />
      </cc:Work>
    </rdf:RDF>
  </metadata>
  <defs
     id="defs98" />
  <rect
     style="fill:#366378"
     id="rect9"
     y="5.9814452e-06"
     x="-2.5390625e-06"
     rx="25.988001"
     height="512"
     width="512" />
  <path
     style="fill:#924565"
     id="path11"
     d="M 0,255.72 0,486 c 0,14.397 11.60301,26 26.00001,26 l 230.05999,0 0,-256.28 -256.06,0" />
  <path
     style="fill:#e4a146"
     id="path13"
     d="m 256.06,255.72 0,256.28 229.94,0 c 14.397,0 26,-11.603 26,-26 l 0,-230.28 -255.94,0" />
  <path
     style="fill:#9a3034"
     id="path15"
     d="M 26.00001,0 C 11.60301,0 0,11.603 0,26 l 0,229.72 256.06,0 L 256.06,0 26.00001,0" />
  <path
     id="path283"
     d="m 81.82133,41.00151 c -0.65236,-0.0115 -1.1481,0.0801 -1.48047,0.27929 -14.959,8.96 -21.51825,414.67316 -7.03125,429.16016 l 0.006,0.006 41.55273,41.55273 371.14453,0 c 14.39735,0 25.98633,-11.59093 25.98633,-25.98828 l 0,-160.52149 -68.69922,-68.69921 C 407.54789,221.04838 109.00309,41.48278 81.82133,41.00151 Z"
     style="opacity:0.25;fill:#000000;fill-rule:evenodd" />
  <path
     style="fill:#ffffff;fill-rule:evenodd"
     id="path293"
     d="M 73.62001,470.69 C 58.72501,461.782 65.26901,50.3 80.33401,41.28 95.39401,32.25 446.744,244.3 446.784,261.79 446.828,279.275 88.49401,479.61 73.62401,470.71" />
</svg>

<?xml version="1.0" encoding="UTF-8" standalone="no"?>
<!-- Created with Inkscape (http://www.inkscape.org/) -->

<svg
   xmlns:dc="http://purl.org/dc/elements/1.1/"
   xmlns:cc="http://creativecommons.org/ns#"
   xmlns:rdf="http://www.w3.org/1999/02/22-rdf-syntax-ns#"
   xmlns:svg="http://www.w3.org/2000/svg"
   xmlns="http://www.w3.org/2000/svg"
   xmlns:inkscape="http://www.inkscape.org/namespaces/inkscape"
   version="1.1"
   width="100%"
   height="100%"
   viewBox="0 0 512 512"
   id="svg2">
  <metadata
     id="metadata297">
    <rdf:RDF>
      <cc:Work
         rdf:about="">
        <dc:format>image/svg+xml</dc:format>
        <dc:type
           rdf:resource="http://purl.org/dc/dcmitype/StillImage" />
      </cc:Work>
    </rdf:RDF>
  </metadata>
  <defs
     id="defs4">
    <clipPath
       id="0">
      <rect
         width="512"
         height="512"
         rx="25.988001"
         x="0"
         y="0"
         id="rect7"
         style="fill:#366378" />
    </clipPath>
  </defs>
  <rect
     width="512"
     height="512"
     rx="25.988001"
     x="0"
     y="0"
     id="rect9"
     style="fill:#366378" />
  <path
     d="M 0,255.72 V 486 c 0,14.397 11.603,26 26,26 H 256.06 V 255.72 H 0"
     inkscape:connector-curvature="0"
     id="path11"
     style="fill:#924565" />
  <path
     d="M 256.06,255.72 V 512 H 486 c 14.397,0 26,-11.603 26,-26 V 255.72 H 256.06"
     inkscape:connector-curvature="0"
     id="path13"
     style="fill:#e4a146" />
  <path
     d="M 26,0 C 11.603,0 0,11.603 0,26 V 255.72 H 256.06 V 0 H 26"
     inkscape:connector-curvature="0"
     id="path15"
     style="fill:#9a3034" />
  <text
     x="-55.611"
     y="202.02"
     id="text17"
     style="font-size:129.22999573px;line-height:125%;letter-spacing:0;word-spacing:0;font-family:Gentium Book Basic">
    <tspan
       x="-55.611"
       y="202.02"
       id="tspan19" />
  </text>
  <text
     x="183.22"
     y="461.53"
     transform="scale(4.0128,0.2492)"
     id="text21"
     style="font-size:46.95399857px;text-anchor:middle;font-family:Arial" />
  <text
     x="525.65997"
     y="122.02"
     id="text23"
     style="font-size:129.22999573px;line-height:125%;letter-spacing:0;word-spacing:0;font-family:Gentium Book Basic">
    <tspan
       x="525.65997"
       y="122.02"
       id="tspan25" />
  </text>
  <text
     x="328.07001"
     y="140.5"
     transform="scale(4.0128,0.2492)"
     id="text27"
     style="font-size:46.95399857px;text-anchor:middle;font-family:Arial" />
  <text
     x="-545.91998"
     y="-59.240002"
     id="text29"
     style="font-size:129.22999573px;line-height:125%;letter-spacing:0;word-spacing:0;font-family:Gentium Book Basic">
    <tspan
       x="-545.91998"
       y="-59.240002"
       id="tspan31" />
  </text>
  <text
     x="61.029999"
     y="-586.85999"
     transform="scale(4.0128,0.2492)"
     id="text33"
     style="font-size:46.95399857px;text-anchor:middle;font-family:Arial" />
  <text
     x="552.13"
     y="-275.70999"
     id="text35"
     style="font-size:129.22999573px;line-height:125%;letter-spacing:0;word-spacing:0;font-family:Gentium Book Basic">
    <tspan
       x="552.13"
       y="-275.70999"
       id="tspan37" />
  </text>
  <text
     x="334.67001"
     y="-1455.52"
     transform="scale(4.0128,0.2492)"
     id="text39"
     style="font-size:46.95399857px;text-anchor:middle;font-family:Arial" />
  <text
     x="1133.4"
     y="-355.72"
     id="text41"
     style="font-size:129.22999573px;line-height:125%;letter-spacing:0;word-spacing:0;font-family:Gentium Book Basic">
    <tspan
       x="1133.4"
       y="-355.72"
       id="tspan43" />
  </text>
  <text
     x="479.51999"
     y="-1776.5601"
     transform="scale(4.0128,0.2492)"
     id="text45"
     style="font-size:46.95399857px;text-anchor:middle;font-family:Arial" />
  <text
     x="744.28003"
     y="-828.12"
     id="text47"
     style="font-size:129.22999573px;line-height:125%;letter-spacing:0;word-spacing:0;font-family:Gentium Book Basic">
    <tspan
       x="744.28003"
       y="-828.12"
       id="tspan49" />
  </text>
  <text
     x="382.54999"
     y="-3672.21"
     transform="scale(4.0128,0.2492)"
     id="text51"
     style="font-size:46.95399857px;text-anchor:middle;font-family:Arial" />
  <text
     x="1325.54"
     y="-908.12"
     id="text53"
     style="font-size:129.22999573px;line-height:125%;letter-spacing:0;word-spacing:0;font-family:Gentium Book Basic">
    <tspan
       x="1325.54"
       y="-908.12"
       id="tspan55" />
  </text>
  <text
     x="527.40002"
     y="-3993.24"
     transform="scale(4.0128,0.2492)"
     id="text57"
     style="font-size:46.95399857px;text-anchor:middle;font-family:Arial" />
  <g
     id="g59"
     style="line-height:125%;letter-spacing:0;word-spacing:0;font-family:Gentium Book Basic">
    <g
       id="g61"
       style="font-size:208.33000183px">
      <text
         x="-507.26001"
         y="506.60001"
         id="text63">
        <tspan
           x="-507.26001"
           y="506.60001"
           id="tspan65" />
      </text>
      <text
         x="-1895.73"
         y="436.25"
         id="text67">
        <tspan
           x="-1895.73"
           y="436.25"
           id="tspan69" />
      </text>
      <text
         x="-2188.8"
         y="278.41"
         id="text71">
        <tspan
           x="-2188.8"
           y="278.41"
           id="tspan73" />
      </text>
      <text
         x="-2610.01"
         y="473.39001"
         id="text75">
        <tspan
           x="-2610.01"
           y="473.39001"
           id="tspan77" />
      </text>
    </g>
    <text
       x="-1285.04"
       y="301.35999"
       transform="scale(1.05082,0.95163)"
       id="text79"
       style="font-size:84.76999664px;fill:#654641">
      <tspan
         x="-1285.04"
         y="301.35999"
         id="tspan81" />
    </text>
  </g>
  <g
     id="g83"
     style="fill:#654641">
    <text
       x="-190.96001"
       y="980.28998"
       transform="scale(4.21677,0.23715)"
       id="text85"
       style="font-size:30.79999924px;text-anchor:middle;font-family:Arial" />
    <text
       x="-1017.23"
       y="277.85999"
       transform="scale(1.05082,0.95163)"
       id="text87"
       style="font-size:45.38000107px;line-height:125%;letter-spacing:0;word-spacing:0;font-family:Gentium Book Basic">
      <tspan
         x="-1017.23"
         y="277.85999"
         id="tspan89" />
    </text>
    <text
       x="-184.28999"
       y="992.41998"
       transform="scale(4.21677,0.23715)"
       id="text91"
       style="font-size:16.48800087px;text-anchor:middle;font-family:Arial" />
    <text
       x="-2091.26"
       y="366.26999"
       id="text93"
       style="font-size:132.57000732px;line-height:125%;letter-spacing:0;word-spacing:0;font-family:Gentium Book Basic">
      <tspan
         x="-2091.26"
         y="366.26999"
         id="tspan95" />
    </text>
    <text
       x="-318.97"
       y="1111.61"
       transform="scale(4.0128,0.2492)"
       id="text97"
       style="font-size:48.16999817px;text-anchor:middle;font-family:Arial" />
  </g>
  <g
     id="g99"
     style="font-size:208.33000183px;line-height:125%;letter-spacing:0;word-spacing:0;fill:#000000;font-family:Gentium Book Basic">
    <text
       x="-1829.01"
       y="346.39001"
       id="text101">
      <tspan
         x="-1829.01"
         y="346.39001"
         id="tspan103" />
    </text>
    <text
       x="-2122.0901"
       y="188.56"
       id="text105">
      <tspan
         x="-2122.0901"
         y="188.56"
         id="tspan107" />
    </text>
  </g>
  <g
     transform="translate(-978.44,-123.66)"
     id="g109">
    <g
       id="g111"
       style="line-height:125%;letter-spacing:0;word-spacing:0;font-family:Gentium Book Basic">
      <text
         x="-272.57001"
         y="559.52002"
         id="text113"
         style="font-size:208.33000183px">
        <tspan
           x="-272.57001"
           y="559.52002"
           id="tspan115" />
      </text>
      <text
         x="939.34998"
         y="391.85999"
         transform="scale(1.05082,0.95163)"
         id="text117"
         style="font-size:84.76999664px;fill:#654641">
        <tspan
           x="939.34998"
           y="391.85999"
           id="tspan119" />
      </text>
    </g>
    <g
       id="g121"
       style="fill:#654641">
      <text
         x="363.35999"
         y="1343.4301"
         transform="scale(4.21679,0.23715)"
         id="text123"
         style="font-size:30.79999924px;text-anchor:middle;font-family:Arial" />
      <text
         x="1207.16"
         y="368.35999"
         transform="scale(1.05082,0.95163)"
         id="text125"
         style="font-size:45.38000107px;line-height:125%;letter-spacing:0;word-spacing:0;font-family:Gentium Book Basic">
        <tspan
           x="1207.16"
           y="368.35999"
           id="tspan127" />
      </text>
      <text
         x="370.03"
         y="1355.5699"
         transform="scale(4.21679,0.23715)"
         id="text129"
         style="font-size:16.48800087px;text-anchor:middle;font-family:Arial" />
      <text
         x="246.17999"
         y="452.39999"
         id="text131"
         style="font-size:132.57000732px;line-height:125%;letter-spacing:0;word-spacing:0;font-family:Gentium Book Basic">
        <tspan
           x="246.17999"
           y="452.39999"
           id="tspan133" />
      </text>
      <text
         x="263.53"
         y="1457.2"
         transform="scale(4.0128,0.2492)"
         id="text135"
         style="font-size:48.16999817px;text-anchor:middle;font-family:Arial" />
    </g>
    <g
       id="g137"
       style="font-size:208.33000183px;line-height:125%;letter-spacing:0;word-spacing:0;fill:#000000;font-family:Gentium Book Basic">
      <text
         x="508.42999"
         y="432.51999"
         id="text139">
        <tspan
           x="508.42999"
           y="432.51999"
           id="tspan141" />
      </text>
      <text
         x="215.35001"
         y="274.67999"
         id="text143">
        <tspan
           x="215.35001"
           y="274.67999"
           id="tspan145" />
      </text>
    </g>
  </g>
  <g
     transform="translate(-1578.36,-152.06)"
     id="g147"
     style="fill:#654641">
    <text
       x="755.39001"
       y="391.85999"
       transform="scale(1.05082,0.95163)"
       id="text149"
       style="font-size:84.76999664px;line-height:125%;letter-spacing:0;word-spacing:0;font-family:Gentium Book Basic">
      <tspan
         x="755.39001"
         y="391.85999"
         id="tspan151" />
    </text>
    <text
       x="317.51999"
       y="1343.4301"
       transform="scale(4.21679,0.23715)"
       id="text153"
       style="font-size:30.79999924px;text-anchor:middle;font-family:Arial" />
    <text
       x="1023.2"
       y="368.35999"
       transform="scale(1.05082,0.95163)"
       id="text155"
       style="font-size:45.38000107px;line-height:125%;letter-spacing:0;word-spacing:0;font-family:Gentium Book Basic">
      <tspan
         x="1023.2"
         y="368.35999"
         id="tspan157" />
    </text>
    <text
       x="324.19"
       y="1355.5699"
       transform="scale(4.21679,0.23715)"
       id="text159"
       style="font-size:16.48800087px;text-anchor:middle;font-family:Arial" />
    <text
       x="52.874001"
       y="452.39999"
       id="text161"
       style="font-size:132.57000732px;line-height:125%;letter-spacing:0;word-spacing:0;font-family:Gentium Book Basic">
      <tspan
         x="52.874001"
         y="452.39999"
         id="tspan163" />
    </text>
    <text
       x="215.36"
       y="1457.2"
       transform="scale(4.0128,0.2492)"
       id="text165"
       style="font-size:48.16999817px;text-anchor:middle;font-family:Arial" />
  </g>
  <g
     id="g167"
     style="line-height:125%;letter-spacing:0;word-spacing:0;font-family:Gentium Book Basic">
    <g
       id="g169"
       style="font-size:208.33000183px">
      <text
         x="-1263.24"
         y="280.45999"
         id="text171">
        <tspan
           x="-1263.24"
           y="280.45999"
           id="tspan173" />
      </text>
      <text
         x="-1556.3101"
         y="122.62"
         id="text175">
        <tspan
           x="-1556.3101"
           y="122.62"
           id="tspan177" />
      </text>
    </g>
    <text
       x="-848.71997"
       y="79.300003"
       id="text179"
       style="font-size:129.22999573px">
      <tspan
         x="-848.71997"
         y="79.300003"
         id="tspan181" />
    </text>
  </g>
  <text
     x="-14.422"
     y="-30.945"
     transform="scale(4.0128,0.2492)"
     id="text183"
     style="font-size:46.95399857px;text-anchor:middle;font-family:Arial" />
  <text
     x="-267.45001"
     y="-0.70099998"
     id="text185"
     style="font-size:129.22999573px;line-height:125%;letter-spacing:0;word-spacing:0;font-family:Gentium Book Basic">
    <tspan
       x="-267.45001"
       y="-0.70099998"
       id="tspan187" />
  </text>
  <text
     x="130.42999"
     y="-351.97"
     transform="scale(4.0128,0.2492)"
     id="text189"
     style="font-size:46.95399857px;text-anchor:middle;font-family:Arial" />
  <text
     x="-1339.03"
     y="-181.96001"
     id="text191"
     style="font-size:129.22999573px;line-height:125%;letter-spacing:0;word-spacing:0;font-family:Gentium Book Basic">
    <tspan
       x="-1339.03"
       y="-181.96001"
       id="tspan193" />
  </text>
  <text
     x="-136.61"
     y="-1079.33"
     transform="scale(4.0128,0.2492)"
     id="text195"
     style="font-size:46.95399857px;text-anchor:middle;font-family:Arial" />
  <text
     x="-240.98"
     y="-398.42999"
     id="text197"
     style="font-size:129.22999573px;line-height:125%;letter-spacing:0;word-spacing:0;font-family:Gentium Book Basic">
    <tspan
       x="-240.98"
       y="-398.42999"
       id="tspan199" />
  </text>
  <text
     x="137.03"
     y="-1947.99"
     transform="scale(4.0128,0.2492)"
     id="text201"
     style="font-size:46.95399857px;text-anchor:middle;font-family:Arial" />
  <text
     x="340.29001"
     y="-478.44"
     id="text203"
     style="font-size:129.22999573px;line-height:125%;letter-spacing:0;word-spacing:0;font-family:Gentium Book Basic">
    <tspan
       x="340.29001"
       y="-478.44"
       id="tspan205" />
  </text>
  <text
     x="281.88"
     y="-2269.03"
     transform="scale(4.0128,0.2492)"
     id="text207"
     style="font-size:46.95399857px;text-anchor:middle;font-family:Arial" />
  <text
     x="-48.832001"
     y="-950.84003"
     id="text209"
     style="font-size:129.22999573px;line-height:125%;letter-spacing:0;word-spacing:0;font-family:Gentium Book Basic">
    <tspan
       x="-48.832001"
       y="-950.84003"
       id="tspan211" />
  </text>
  <text
     x="184.91"
     y="-4164.6802"
     transform="scale(4.0128,0.2492)"
     id="text213"
     style="font-size:46.95399857px;text-anchor:middle;font-family:Arial" />
  <text
     x="532.42999"
     y="-1030.84"
     id="text215"
     style="font-size:129.22999573px;line-height:125%;letter-spacing:0;word-spacing:0;font-family:Gentium Book Basic">
    <tspan
       x="532.42999"
       y="-1030.84"
       id="tspan217" />
  </text>
  <text
     x="329.76001"
     y="-4485.71"
     transform="scale(4.0128,0.2492)"
     id="text219"
     style="font-size:46.95399857px;text-anchor:middle;font-family:Arial" />
  <g
     id="g221"
     style="line-height:125%;letter-spacing:0;word-spacing:0;font-family:Gentium Book Basic">
    <text
       x="-1300.37"
       y="383.88"
       id="text223"
       style="font-size:208.33000183px">
      <tspan
         x="-1300.37"
         y="383.88"
         id="tspan225" />
    </text>
    <g
       transform="translate(-872.69,-170.47)"
       id="g227">
      <text
         x="817.47998"
         y="255.98"
         id="text229"
         style="font-size:208.33000183px">
        <tspan
           x="817.47998"
           y="255.98"
           id="tspan231" />
      </text>
      <text
         x="284.79999"
         y="370.01999"
         transform="scale(1.05082,0.95163)"
         id="text233"
         style="font-size:84.76999664px;fill:#654641">
        <tspan
           x="284.79999"
           y="370.01999"
           id="tspan235" />
      </text>
    </g>
  </g>
  <g
     transform="translate(-872.69,-170.47)"
     id="g237"
     style="fill:#654641">
    <text
       x="200.25"
       y="1255.8"
       transform="scale(4.21679,0.23715)"
       id="text239"
       style="font-size:30.79999924px;text-anchor:middle;font-family:Arial" />
    <text
       x="552.60999"
       y="346.51999"
       transform="scale(1.05082,0.95163)"
       id="text241"
       style="font-size:45.38000107px;line-height:125%;letter-spacing:0;word-spacing:0;font-family:Gentium Book Basic">
      <tspan
         x="552.60999"
         y="346.51999"
         id="tspan243" />
    </text>
    <text
       x="206.92"
       y="1267.9301"
       transform="scale(4.21679,0.23715)"
       id="text245"
       style="font-size:16.48800087px;text-anchor:middle;font-family:Arial" />
    <text
       x="-441.64001"
       y="431.60999"
       id="text247"
       style="font-size:132.57000732px;line-height:125%;letter-spacing:0;word-spacing:0;font-family:Gentium Book Basic">
      <tspan
         x="-441.64001"
         y="431.60999"
         id="tspan249" />
    </text>
    <text
       x="92.129997"
       y="1373.8101"
       transform="scale(4.0128,0.2492)"
       id="text251"
       style="font-size:48.16999817px;text-anchor:middle;font-family:Arial" />
  </g>
  <g
     transform="translate(-872.69,-170.47)"
     id="g253">
    <g
       id="g255"
       style="line-height:125%;letter-spacing:0;word-spacing:0;font-family:Gentium Book Basic">
      <text
         x="-272.57001"
         y="559.52002"
         id="text257"
         style="font-size:208.33000183px">
        <tspan
           x="-272.57001"
           y="559.52002"
           id="tspan259" />
      </text>
      <text
         x="939.34998"
         y="391.85999"
         transform="scale(1.05082,0.95163)"
         id="text261"
         style="font-size:84.76999664px;fill:#654641">
        <tspan
           x="939.34998"
           y="391.85999"
           id="tspan263" />
      </text>
    </g>
    <g
       id="g265"
       style="fill:#654641">
      <text
         x="363.35999"
         y="1343.4301"
         transform="scale(4.21679,0.23715)"
         id="text267"
         style="font-size:30.79999924px;text-anchor:middle;font-family:Arial" />
      <text
         x="1207.16"
         y="368.35999"
         transform="scale(1.05082,0.95163)"
         id="text269"
         style="font-size:45.38000107px;line-height:125%;letter-spacing:0;word-spacing:0;font-family:Gentium Book Basic">
        <tspan
           x="1207.16"
           y="368.35999"
           id="tspan271" />
      </text>
      <text
         x="370.03"
         y="1355.5699"
         transform="scale(4.21679,0.23715)"
         id="text273"
         style="font-size:16.48800087px;text-anchor:middle;font-family:Arial" />
      <text
         x="246.17999"
         y="452.39999"
         id="text275"
         style="font-size:132.57000732px;line-height:125%;letter-spacing:0;word-spacing:0;font-family:Gentium Book Basic">
        <tspan
           x="246.17999"
           y="452.39999"
           id="tspan277" />
      </text>
      <text
         x="263.53"
         y="1457.2"
         transform="scale(4.0128,0.2492)"
         id="text279"
         style="font-size:48.16999817px;text-anchor:middle;font-family:Arial" />
    </g>
  </g>
  <g
     clip-path="url(#0)"
     id="g281"
     style="opacity:0.25;fill:#000000;fill-rule:evenodd">
    <path
       d="m 73.62,470.69 c -0.106,-0.063 -0.211,-0.147 -0.314,-0.251 l 353.55,353.55 c 0.104,0.104 0.209,0.187 0.314,0.251 z"
       inkscape:connector-curvature="0"
       id="path283" />
    <path
       d="M 73.31,470.44 C 58.823,455.953 65.381,50.24 80.34,41.28 l 353.55,353.55 c -14.958,8.958 -21.515,414.67 -7.03,429.16 z"
       inkscape:connector-curvature="0"
       id="path285" />
    <path
       d="M 80.34,41.28 C 94.521,32.78 406.69,220.19 443.3,256.79 L 796.85,610.34 C 760.245,573.735 448.08,386.33 433.89,394.83 z"
       inkscape:connector-curvature="0"
       id="path287" />
    <path
       d="m 443.29,256.79 c 2.281,2.281 3.492,3.976 3.494,5 l 353.55,353.55 c -0.002,-1.026 -1.213,-2.721 -3.494,-5 z"
       inkscape:connector-curvature="0"
       id="path289" />
    <path
       d="M 446.79,261.79 C 446.834,279.275 88.5,479.61 73.63,470.71 l 353.55,353.55 c 14.878,8.908 373.21,-191.43 373.16,-208.92 z"
       inkscape:connector-curvature="0"
       id="path291" />
  </g>
  <path
     d="M 73.62,470.69 C 58.725,461.782 65.269,50.3 80.334,41.28 c 15.06,-9.03 366.41,203.02 366.45,220.51 0.044,17.485 -358.29,217.82 -373.16,208.92"
     inkscape:connector-curvature="0"
     id="path293"
     style="fill:#ffffff;fill-rule:evenodd" />
</svg>
